src/assets/images/outline.svg

<svg width="20" height="20" viewBox="0 0 20 22" fill="none" xmlns="http://www.w3.org/2000/svg">
<path d="M4.63102 14.493L3.31827 15.8057C3.07731 16.0467 3.07731 16.4408 3.31827 16.6817C3.55924 16.9227 3.95331 16.9227 4.19428 16.6817L5.50703 15.369C5.74799 15.128 5.74799 14.7339 5.50703 14.493C5.26606 14.252 4.87199 14.252 4.63102 14.493ZM4.25452 5.13805C4.49799 5.38153 4.89458 5.38153 5.13805 5.13805C5.38153 4.89458 5.38153 4.49799 5.13805 4.25452L3.81275 2.92922C3.56928 2.68574 3.17269 2.68574 2.92922 2.92922C2.68574 3.17269 2.68574 3.56928 2.92922 3.81275L4.25452 5.13805ZM2.5 9.375H0.625C0.278615 9.375 0 9.65362 0 10C0 10.3464 0.281125 10.625 0.625 10.625H2.5C2.84639 10.625 3.125 10.3464 3.125 10C3.125 9.65613 2.84388 9.375 2.5 9.375ZM10 3.125C10.3464 3.125 10.625 2.84639 10.625 2.5V0.625C10.625 0.278614 10.3464 0 10 0C9.65361 0 9.375 0.278614 9.375 0.625V2.5C9.375 2.84639 9.65612 3.125 10 3.125ZM16.0141 4.86195L17.3268 3.5492C17.5678 3.30823 17.5678 2.91416 17.3268 2.67319C17.0858 2.43223 16.6918 2.43223 16.4508 2.67319L15.1381 3.98594C14.8971 4.22691 14.8971 4.62098 15.1381 4.86195C15.379 5.10542 15.7731 5.10542 16.0141 4.86195ZM19.375 9.375H17.5C17.1536 9.375 16.875 9.65362 16.875 10C16.875 10.3464 17.1536 10.625 17.5 10.625H19.375C19.7214 10.625 20 10.3464 20 10C20 9.65613 19.7214 9.375 19.375 9.375ZM15.7455 14.8619C15.502 14.6185 15.1054 14.6185 14.8619 14.8619C14.6185 15.1054 14.6185 15.502 14.8619 15.7455L16.1872 17.0708C16.4307 17.3143 16.8273 17.3143 17.0708 17.0708C17.3143 16.8273 17.3143 16.4307 17.0708 16.1873L15.7455 14.8619ZM10 4.37249C6.89006 4.37249 4.36998 6.89257 4.36998 10.0025C4.36998 13.1125 6.89006 15.6325 10 15.6325C13.1099 15.6325 15.63 13.1125 15.63 10.0025C15.63 6.89257 13.1099 4.37249 10 4.37249ZM10 16.875C9.65361 16.875 9.375 17.1536 9.375 17.5V19.375C9.375 19.7214 9.65361 20 10 20C10.3464 20 10.625 19.7214 10.625 19.375V17.5C10.625 17.1561 10.3464 16.875 10 16.875Z" fill="url(#paint0_linear_206_457)"/>
<defs>
<linearGradient id="paint0_linear_206_457" x1="8.33333" y1="4.16667" x2="12.5" y2="18.3333" gradientUnits="userSpaceOnUse">
<stop stop-color="#FBC949"/>
<stop offset="1" stop-color="#E57711"/>
</linearGradient>
</defs>
</svg>

<svg xmlns="http://www.w3.org/2000/svg" fill="none" viewBox="0 0 20 22"><path fill="url(#a)" d="m4.631 14.493-1.313 1.313a.621.621 0 0 0 0 .876.621.621 0 0 0 .876 0l1.313-1.313a.621.621 0 0 0 0-.876.621.621 0 0 0-.876 0Zm-.376-9.355a.626.626 0 0 0 .883-.883L3.813 2.929a.626.626 0 0 0-.884.884l1.326 1.325ZM2.5 9.375H.625a.625.625 0 0 0 0 1.25H2.5A.623.623 0 0 0 3.125 10a.627.627 0 0 0-.625-.625Zm7.5-6.25a.623.623 0 0 0 .625-.625V.625A.623.623 0 0 0 10 0a.623.623 0 0 0-.625.625V2.5c0 .346.281.625.625.625Zm6.014 1.737 1.313-1.313a.621.621 0 0 0 0-.876.621.621 0 0 0-.876 0l-1.313 1.313a.621.621 0 0 0 0 .876.617.617 0 0 0 .876 0Zm3.361 4.513H17.5a.623.623 0 0 0-.625.625c0 .346.279.625.625.625h1.875a.625.625 0 0 0 0-1.25Zm-3.63 5.487a.626.626 0 0 0-.883.883l1.325 1.326a.626.626 0 0 0 .884-.884l-1.326-1.325ZM10 4.372a5.63 5.63 0 0 0-5.63 5.63 5.63 5.63 0 0 0 5.63 5.63 5.63 5.63 0 0 0 5.63-5.63A5.63 5.63 0 0 0 10 4.372Zm0 12.503a.623.623 0 0 0-.625.625v1.875c0 .346.279.625.625.625a.623.623 0 0 0 .625-.625V17.5a.625.625 0 0 0-.625-.625Z"/><defs><linearGradient id="a" x1="8.333" x2="12.5" y1="4.167" y2="18.333" gradientUnits="userSpaceOnUse"><stop stop-color="#FBC949"/><stop offset="1" stop-color="#E57711"/></linearGradient></defs></svg>
